X:31
T:Sally Gardens, The
M:C|
Z:Boston
K:G
|:DE|"G"G2 DG B2GB|"Em"dBeB "D"dBAB|"G"d2 (3Bcd "C"efge|"D"dBAB GEDE|!
"G"G2 DG B2GB|"Em"dBeB "D"dBAB|"G"d2 (3Bcd "C"efge|"D"dBAB "G"G2:|!
|:GB|"G"dggf g2 df|"Em"g2 bg aged|"Am"eaag a2 eg|"D"ag bg ageg|!
"G"dggf g2 df|"Em"g2 bg ageg|"G"d2 (3Bcd "C"efge|"D"dBAB "G"G2:|

